assets/icons/doctype/gdocs.svg

<?xml version="1.0"?><svg xmlns="http://www.w3.org/2000/svg" width="56" height="64" viewBox="0 0 56 64"><path fill="#3C8CEA" d="m5.1 0c-2.8 0-5.1 2.3-5.1 5.1v53.8c0 2.8 2.3 5.1 5.1 5.1h45.8c2.8 0 5.1-2.3 5.1-5.1v-38.6l-18.9-20.3h-32z"></path><path fill="#2D6FE4" d="m56 20.4v1h-12.8s-6.4-1.3-6.2-6.7c0 0 0.2 5.7 6 5.7h13z"></path><path opacity=".5" fill="#fff" enable-background="new" d="m37.1 0v14.6c0 1.6 1.1 5.8 6.1 5.8h12.8l-18.9-20.4z"></path><path fill="#fff" d="m25.9 45.1h-7.6v2.2h5.4c-0.3 3.2-2.9 4.5-5.4 4.5-3.2 0-5.9-2.5-5.9-6 0-3.4 2.6-6 5.9-6 2.5 0 4.1 1.6 4.1 1.6l1.6-1.6s-2-2.2-5.7-2.2c-4.7 0-8.3 4-8.3 8.2 0 4.2 3.4 8.3 8.4 8.3 4.4 0 7.7-3 7.7-7.5-0.1-0.9-0.2-1.5-0.2-1.5z"></path></svg>

<svg xmlns="http://www.w3.org/2000/svg" x="0px" y="0px"
	 width="56px" height="64px" viewBox="0 0 56 64" enable-background="new 0 0 56 64" xml:space="preserve">
<path fill="#0176D3" d="M5.1,0C2.3,0,0,2.3,0,5.1v53.8C0,61.7,2.3,64,5.1,64h45.8c2.8,0,5.1-2.3,5.1-5.1V20.3L37.1,0
	C37.1,0,5.1,0,5.1,0z"/>
<path fill="#014486" d="M56,20.4v1H43.2c0,0-6.4-1.3-6.2-6.7c0,0,0.2,5.7,6,5.7H56z"/>
<path fill="#AACBFF" enable-background="new    " d="M37.1,0v14.6c0,1.6,1.1,5.8,6.1,5.8H56C56,20.4,37.1,0,37.1,0z"
	/>
<path fill="#FFFFFF" d="M25.9,45.1h-7.6v2.2h5.4c-0.3,3.2-2.9,4.5-5.4,4.5c-3.2,0-5.9-2.5-5.9-6c0-3.4,2.6-6,5.9-6
	c2.5,0,4.1,1.6,4.1,1.6l1.6-1.6c0,0-2-2.2-5.7-2.2c-4.7,0-8.3,4-8.3,8.2c0,4.2,3.4,8.3,8.4,8.3c4.4,0,7.7-3,7.7-7.5
	C26,45.7,25.9,45.1,25.9,45.1L25.9,45.1z"/>
</svg>
